X: 020783
T: Ballintore Fancy
S: "Music of Ireland - The Big Session" (DJ Taylor)
Z: B.Black
N: name incorrectly spelled in (S) as "Balintor"
L: 1/8
M: 4/4
R: reel
K: G
GB B2 GBdB|GBBG FGAF|GB B2 BGdg|1 ecAG FGAF :|2\
ecAG FGAc ||
BE E2 BAFA|BE E2 ADFA|BE E2 cABG|1 AGFG AcBA :|2\
AGFG ADFA ||
